src/22/mimetypes/application-x-ruby.svg

<?xml version="1.0" encoding="UTF-8" standalone="no"?>
<!-- Created with Inkscape (http://www.inkscape.org/) -->

<svg
   xmlns:dc="http://purl.org/dc/elements/1.1/"
   xmlns:cc="http://creativecommons.org/ns#"
   xmlns:rdf="http://www.w3.org/1999/02/22-rdf-syntax-ns#"
   xmlns:svg="http://www.w3.org/2000/svg"
   xmlns="http://www.w3.org/2000/svg"
   xmlns:sodipodi="http://sodipodi.sourceforge.net/DTD/sodipodi-0.dtd"
   xmlns:inkscape="http://www.inkscape.org/namespaces/inkscape"
   width="22"
   version="1.1"
   height="22"
   id="svg2"
   inkscape:version="0.91 r13725"
   sodipodi:docname="application-x-ruby.svg">
  <sodipodi:namedview
     pagecolor="#ffffff"
     bordercolor="#666666"
     borderopacity="1"
     objecttolerance="10"
     gridtolerance="10"
     guidetolerance="10"
     inkscape:pageopacity="0"
     inkscape:pageshadow="2"
     inkscape:window-width="709"
     inkscape:window-height="480"
     id="namedview20"
     showgrid="false"
     inkscape:zoom="10.727273"
     inkscape:cx="11"
     inkscape:cy="11"
     inkscape:window-x="0"
     inkscape:window-y="0"
     inkscape:window-maximized="0"
     inkscape:current-layer="layer1" />
  <defs
     id="defs3871" />
  <metadata
     id="metadata3874">
    <rdf:RDF>
      <cc:Work
         rdf:about="">
        <dc:format>image/svg+xml</dc:format>
        <dc:type
           rdf:resource="http://purl.org/dc/dcmitype/StillImage" />
      </cc:Work>
    </rdf:RDF>
  </metadata>
  <g
     inkscape:label="Capa 1"
     inkscape:groupmode="layer"
     id="layer1"
     transform="matrix(1 0 0 1 -326 -534.3622)">
    <rect
       width="0"
       x="256.22556"
       y="514.69751"
       height="14.668059"
       style="fill:#e00a5e"
       id="rect4035" />
    <rect
       width="0"
       x="263.18613"
       y="537.26813"
       height="14.668059"
       style="fill:#e00a5e"
       id="rect4035-8" />
    <rect
       width="0"
       x="264.99942"
       y="536.2074"
       height="14.668059"
       style="fill:#e00a5e"
       id="rect4035-0" />
    <rect
       width="0"
       x="256.22556"
       y="514.69751"
       height="14.668059"
       style="fill:#e00a5e"
       id="rect4035-3" />
    <rect
       width="0"
       x="263.18613"
       y="537.26813"
       height="14.668059"
       style="fill:#e00a5e"
       id="rect4035-8-9" />
    <rect
       width="0"
       x="264.99942"
       y="536.2074"
       height="14.668059"
       style="fill:#e00a5e"
       id="rect4035-0-4" />
    <rect
       width="0"
       x="256.22556"
       y="514.69751"
       height="14.668059"
       style="fill:#e00a5e"
       id="rect4035-2" />
    <rect
       width="0"
       x="263.18613"
       y="537.26813"
       height="14.668059"
       style="fill:#e00a5e"
       id="rect4035-8-99" />
    <rect
       width="0"
       x="264.99942"
       y="536.2074"
       height="14.668059"
       style="fill:#e00a5e"
       id="rect4035-0-43" />
    <rect
       width="0"
       x="256.22556"
       y="514.69751"
       height="14.668059"
       style="fill:#e00a5e"
       id="rect4035-3-9" />
    <rect
       width="0"
       x="263.18613"
       y="537.26813"
       height="14.668059"
       style="fill:#e00a5e"
       id="rect4035-8-9-9" />
    <rect
       width="0"
       x="264.99942"
       y="536.2074"
       height="14.668059"
       style="fill:#e00a5e"
       id="rect4035-0-4-4" />
    <path
       style="shape-rendering:auto;color-interpolation-filters:linearRGB;fill:#723838;image-rendering:auto;text-rendering:auto;color:#000000;fill-rule:evenodd;color-rendering:auto;color-interpolation:sRGB;fill-opacity:1"
       id="path4734"
       d="M 8.5 3 L 8.5 5 L 9.5 5 L 9.5 3 L 8.5 3 z M 12.5 3 L 12.5 5 L 13.5 5 L 13.5 3 L 12.5 3 z M 4.5605469 4.0800781 L 3.7597656 4.6816406 L 4.9609375 6.28125 L 5.7597656 5.6816406 L 4.5605469 4.0800781 z M 17.439453 4.0800781 L 16.240234 5.6816406 L 17.039062 6.28125 L 18.240234 4.6816406 L 17.439453 4.0800781 z M 7 6 L 3 9 L 11 19 L 19 9 L 15 6 L 7 6 z M 7.3339844 7 L 10.5 7 L 10.5 8.5 L 5.3339844 8.5 L 7.3339844 7 z M 11.5 7 L 14.666016 7 L 16.666016 8.5 L 11.5 8.5 L 11.5 7 z M 4.6796875 9.5 L 10.5 9.5 L 10.5 16.775391 L 4.6796875 9.5 z M 11.5 9.5 L 17.320312 9.5 L 11.5 16.775391 L 11.5 9.5 z "
       transform="matrix(1 0 0 1 326 534.3622)" />
  </g>
</svg>

<svg xmlns="http://www.w3.org/2000/svg" width="22" height="22"><path d="M8.5 3v2h1V3h-1zm4 0v2h1V3h-1zM4.56 4.08l-.8.602 1.2 1.6.8-.6-1.2-1.602zm12.88 0l-1.2 1.602.8.6 1.2-1.6-.8-.602zM7 6L3 9l8 10 8-10-4-3H7zm.334 1H10.5v1.5H5.334l2-1.5zM11.5 7h3.166l2 1.5H11.5V7zM4.68 9.5h5.82v7.275L4.68 9.5zm6.82 0h5.82l-5.82 7.275V9.5z" fill="#723838" color="#000" fill-rule="evenodd"/></svg>
